resources/images/backgroundPalette/background4.svg

<?xml version="1.0" encoding="UTF-8" standalone="no"?>
<!-- Generator: Adobe Illustrator 13.0.2, SVG Export Plug-In . SVG Version: 6.00 Build 14948)  -->

<svg
   xmlns:ns="&amp;#38;ns_sfw;"
   xmlns:a="http://ns.adobe.com/AdobeSVGViewerExtensions/3.0/"
   xmlns:dc="http://purl.org/dc/elements/1.1/"
   xmlns:cc="http://creativecommons.org/ns#"
   xmlns:rdf="http://www.w3.org/1999/02/22-rdf-syntax-ns#"
   xmlns:svg="http://www.w3.org/2000/svg"
   xmlns="http://www.w3.org/2000/svg"
   xmlns:xlink="http://www.w3.org/1999/xlink"
   xmlns:sodipodi="http://sodipodi.sourceforge.net/DTD/sodipodi-0.dtd"
   xmlns:inkscape="http://www.inkscape.org/namespaces/inkscape"
   version="1.2"
   x="0px"
   y="0px"
   width="128px"
   height="128px"
   viewBox="0 0 128 128"
   xml:space="preserve"
   id="svg5179"
   inkscape:version="0.91 r13725"
   sodipodi:docname="background4.svg"><defs
     id="defs5216"><linearGradient
       y2="102.1488"
       x2="63.3647"
       y1="24.7017"
       x1="63.3647"
       gradientUnits="userSpaceOnUse"
       id="SVGID_1_"><stop
         id="stop5187"
         style="stop-color:#4D4D4D"
         offset="0" /><stop
         id="stop5189"
         style="stop-color:#000000"
         offset="1" /><a:midPointStop
         style="stop-color:#4D4D4D"
         offset="0" /><a:midPointStop
         style="stop-color:#4D4D4D"
         offset="0.5" /><a:midPointStop
         style="stop-color:#000000"
         offset="1" /></linearGradient><linearGradient
       y2="77.0022"
       x2="66.1289"
       y1="104.8428"
       x1="66.1289"
       gradientUnits="userSpaceOnUse"
       id="SVGID_2_"><stop
         id="stop5196"
         style="stop-color:#E0E0E0"
         offset="0" /><stop
         id="stop5198"
         style="stop-color:#999999"
         offset="1" /><a:midPointStop
         style="stop-color:#E0E0E0"
         offset="0" /><a:midPointStop
         style="stop-color:#E0E0E0"
         offset="0.5" /><a:midPointStop
         style="stop-color:#999999"
         offset="1" /></linearGradient></defs><sodipodi:namedview
     pagecolor="#ffffff"
     bordercolor="#666666"
     borderopacity="1"
     objecttolerance="10"
     gridtolerance="10"
     guidetolerance="10"
     inkscape:pageopacity="0"
     inkscape:pageshadow="2"
     inkscape:window-width="1919"
     inkscape:window-height="2109"
     id="namedview5214"
     showgrid="false"
     inkscape:zoom="9.703125"
     inkscape:cx="38.904992"
     inkscape:cy="64"
     inkscape:window-x="0"
     inkscape:window-y="0"
     inkscape:window-maximized="0"
     inkscape:current-layer="svg5179" /><metadata
     id="metadata5181"><ns:sfw><ns:slices /><ns:sliceSourceBounds
         x="5"
         y="19"
         width="117"
         height="90"
         bottomLeftOrigin="true" /></ns:sfw><rdf:RDF><cc:Work
         rdf:about=""><dc:format>image/svg+xml</dc:format><dc:type
           rdf:resource="http://purl.org/dc/dcmitype/StillImage" /></cc:Work></rdf:RDF></metadata><g
     id="g4148"><path
       d="m 104.771,102.666 -82.814,0 c -6.19,0 -11.227,-5.037 -11.227,-11.23 l 0,-55.209 C 10.73,30.036 15.766,25 21.957,25 l 82.815,0 C 110.963,25 116,30.036 116,36.227 l 0,55.208 c 0,6.194 -5.037,11.231 -11.229,11.231 l 0,0 z"
       id="path5191"
       style="fill:url(#SVGID_1_)"
       inkscape:connector-curvature="0" /><image
       y="30"
       x="17"
       width="93"
       height="70"
       xlink:href="data:image/png;base64,iVBORw0KGgoAAAANSUhEUgAAAF0AAABGCAYAAACuYJibAAAACXBIWXMAAAsSAAALEgHS3X78AAAA GXRFWHRTb2Z0d2FyZQBBZG9iZSBJbWFnZVJlYWR5ccllPAAAAKRJREFUeNrs2TEKgDAMhtHU+1/A 00bcu8gPxer7wLXDI2QwVQ/r7vP+Kujvbxyl5UGHDl3QoQs6dEGHLujQoQs6dEHfrpH+xJdJ/2bO dfkbJt16gS7o0AUduqBDF3To0AUdurIcMUy6pjli5G+YdOsFuqBDF3Togg5d0KFDF3ToynLE2CH/ 0/M3rBc7HbqgQxd06IIOXdChQxd06IIOXdBf2SXAAOJnmrS/KcFVAAAAAElFTkSuQmCC"
       id="image5193" /><path
       d="m 113.525,71.782 c 0,0 0.02,-0.042 0.052,-0.114 -0.018,0.041 -0.034,0.074 -0.052,0.114 z m 0,0 c -5.221,11.31 -14.791,12.181 -14.791,12.181 l -81.273,13.92 -3.946,4.193 c 2.36,1.872 5.337,3 8.577,3 l 82.815,0 c 7.629,0 13.837,-6.207 13.837,-13.84 l 0,-19.454 -5.219,0 z"
       id="path5200"
       style="fill:url(#SVGID_2_)"
       inkscape:connector-curvature="0" /><path
       d="m 104.906,22.192 c 7.629,0 13.837,6.207 13.837,13.836 l 0,55.208 c 0,7.633 -6.208,13.84 -13.837,13.84 l -82.815,0 c -7.629,0 -13.836,-6.207 -13.836,-13.84 l 0,-55.208 c 0,-7.629 6.207,-13.836 13.836,-13.836 l 82.815,0 m 0,5.22 -82.815,0 c -4.751,0 -8.616,3.865 -8.616,8.616 l 0,55.208 c 0,4.753 3.865,8.619 8.616,8.619 l 82.815,0 c 4.751,0 8.617,-3.866 8.617,-8.619 l 0,-55.208 c 0,-4.751 -3.866,-8.616 -8.617,-8.616 l 0,0 z"
       id="path5202"
       inkscape:connector-curvature="0"
       style="fill:#ffffff" /><path
       d="m 104.906,22.192 c 7.629,0 13.837,6.207 13.837,13.836 l 0,55.208 c 0,7.633 -6.208,13.84 -13.837,13.84 l -82.815,0 c -7.629,0 -13.836,-6.207 -13.836,-13.84 l 0,-55.208 c 0,-7.629 6.207,-13.836 13.836,-13.836 l 82.815,0 m 0,3.48 -82.815,0 c -5.71,0 -10.356,4.646 -10.356,10.356 l 0,55.208 c 0,5.713 4.646,10.359 10.356,10.359 l 82.815,0 c 5.711,0 10.357,-4.646 10.357,-10.359 l 0,-55.208 c 10e-4,-5.71 -4.646,-10.356 -10.357,-10.356 l 0,0 z"
       id="path5204"
       inkscape:connector-curvature="0"
       style="fill:#b0b9c4" /><g
       id="Layer_1"><linearGradient
         y2="78.9319"
         x2="63.4618"
         y1="92.8516"
         x1="68.6816"
         gradientUnits="userSpaceOnUse"
         id="SVGID_3_"><stop
           id="stop5208"
           style="stop-color:#657180"
           offset="0" /><stop
           id="stop5210"
           style="stop-color:#AFB9C5"
           offset="1" /><a:midPointStop
           style="stop-color:#657180"
           offset="0" /><a:midPointStop
           style="stop-color:#657180"
           offset="0.5" /><a:midPointStop
           style="stop-color:#AFB9C5"
           offset="1" /></linearGradient><path
         id="path5212"
         d="M96.125,87.346C79.1,91.045,17.461,97.883,17.461,97.883l70.542-26.666   c0,0,20.494,17.185,25.521-0.401C113.525,70.815,113.148,83.646,96.125,87.346z"
         fill="url(#SVGID_3_)" /></g></g></svg>

<?xml version="1.0" encoding="utf-8"?>
<!-- Generator: Adobe Illustrator 13.0.2, SVG Export Plug-In . SVG Version: 6.00 Build 14948)  -->
<!DOCTYPE svg [
	<!ENTITY ns_flows "http://ns.adobe.com/Flows/1.0/">
	<!ENTITY ns_extend "http://ns.adobe.com/Extensibility/1.0/">
	<!ENTITY ns_ai "http://ns.adobe.com/AdobeIllustrator/10.0/">
	<!ENTITY ns_graphs "http://ns.adobe.com/Graphs/1.0/">
	<!ENTITY ns_vars "http://ns.adobe.com/Variables/1.0/">
	<!ENTITY ns_imrep "http://ns.adobe.com/ImageReplacement/1.0/">
	<!ENTITY ns_sfw "http://ns.adobe.com/SaveForWeb/1.0/">
	<!ENTITY ns_custom "http://ns.adobe.com/GenericCustomNamespace/1.0/">
	<!ENTITY ns_adobe_xpath "http://ns.adobe.com/XPath/1.0/">
]>
<svg version="1.2" baseProfile="tiny" xmlns:x="&ns_extend;" xmlns:i="&ns_ai;" xmlns:graph="&ns_graphs;"
	 xmlns="http://www.w3.org/2000/svg" xmlns:xlink="http://www.w3.org/1999/xlink" xmlns:a="http://ns.adobe.com/AdobeSVGViewerExtensions/3.0/"
	 x="0px" y="0px" width="128px" height="128px" viewBox="0 0 128 128" xml:space="preserve">
<metadata>
	<sfw  xmlns="&ns_sfw;">
		<slices></slices>
		<sliceSourceBounds  x="5" y="19" width="117" height="90" bottomLeftOrigin="true"></sliceSourceBounds>
	</sfw>
</metadata>
<g id="Layer_2">
	<path fill="#666666" d="M122,93c0,8.837-7.164,16-16,16H21c-8.836,0-16-7.163-16-16V35c0-8.836,7.164-16,16-16h85
		c8.836,0,16,7.164,16,16V93z"/>
	<linearGradient id="SVGID_1_" gradientUnits="userSpaceOnUse" x1="63.3647" y1="24.7017" x2="63.3647" y2="102.1488">
		<stop  offset="0" style="stop-color:#4D4D4D"/>
		<stop  offset="1" style="stop-color:#000000"/>
		<a:midPointStop  offset="0" style="stop-color:#4D4D4D"/>
		<a:midPointStop  offset="0.5" style="stop-color:#4D4D4D"/>
		<a:midPointStop  offset="1" style="stop-color:#000000"/>
	</linearGradient>
	<path fill="url(#SVGID_1_)" d="M104.771,102.666H21.957c-6.19,0-11.227-5.037-11.227-11.23V36.227
		C10.73,30.036,15.766,25,21.957,25h82.815C110.963,25,116,30.036,116,36.227v55.208C116,97.629,110.963,102.666,104.771,102.666
		L104.771,102.666z"/>
	
		<image width="93" height="70" xlink:href="data:image/png;base64,iVBORw0KGgoAAAANSUhEUgAAAF0AAABGCAYAAACuYJibAAAACXBIWXMAAAsSAAALEgHS3X78AAAA
GXRFWHRTb2Z0d2FyZQBBZG9iZSBJbWFnZVJlYWR5ccllPAAAAKRJREFUeNrs2TEKgDAMhtHU+1/A
00bcu8gPxer7wLXDI2QwVQ/r7vP+Kujvbxyl5UGHDl3QoQs6dEGHLujQoQs6dEHfrpH+xJdJ/2bO
dfkbJt16gS7o0AUduqBDF3To0AUdurIcMUy6pjli5G+YdOsFuqBDF3Togg5d0KFDF3ToynLE2CH/
0/M3rBc7HbqgQxd06IIOXdChQxd06IIOXdBf2SXAAOJnmrS/KcFVAAAAAElFTkSuQmCC" transform="matrix(1 0 0 1 17 30)">
	</image>
	<linearGradient id="SVGID_2_" gradientUnits="userSpaceOnUse" x1="66.1289" y1="104.8428" x2="66.1289" y2="77.0022">
		<stop  offset="0" style="stop-color:#E0E0E0"/>
		<stop  offset="1" style="stop-color:#999999"/>
		<a:midPointStop  offset="0" style="stop-color:#E0E0E0"/>
		<a:midPointStop  offset="0.5" style="stop-color:#E0E0E0"/>
		<a:midPointStop  offset="1" style="stop-color:#999999"/>
	</linearGradient>
	<path fill="url(#SVGID_2_)" d="M113.525,71.782c0,0,0.02-0.042,0.052-0.114C113.559,71.709,113.543,71.742,113.525,71.782z
		 M113.525,71.782c-5.221,11.31-14.791,12.181-14.791,12.181l-81.273,13.92l-3.946,4.193c2.36,1.872,5.337,3,8.577,3h82.815
		c7.629,0,13.837-6.207,13.837-13.84V71.782H113.525z"/>
	<path fill="#FFFFFF" d="M104.906,22.192c7.629,0,13.837,6.207,13.837,13.836v55.208c0,7.633-6.208,13.84-13.837,13.84H22.091
		c-7.629,0-13.836-6.207-13.836-13.84V36.028c0-7.629,6.207-13.836,13.836-13.836H104.906 M104.906,27.412H22.091
		c-4.751,0-8.616,3.865-8.616,8.616v55.208c0,4.753,3.865,8.619,8.616,8.619h82.815c4.751,0,8.617-3.866,8.617-8.619V36.028
		C113.523,31.277,109.657,27.412,104.906,27.412L104.906,27.412z"/>
	<path fill="#B0B9C4" d="M104.906,22.192c7.629,0,13.837,6.207,13.837,13.836v55.208c0,7.633-6.208,13.84-13.837,13.84H22.091
		c-7.629,0-13.836-6.207-13.836-13.84V36.028c0-7.629,6.207-13.836,13.836-13.836H104.906 M104.906,25.672H22.091
		c-5.71,0-10.356,4.646-10.356,10.356v55.208c0,5.713,4.646,10.359,10.356,10.359h82.815c5.711,0,10.357-4.646,10.357-10.359V36.028
		C115.264,30.318,110.617,25.672,104.906,25.672L104.906,25.672z"/>
</g>
<g id="Layer_1">
	<linearGradient id="SVGID_3_" gradientUnits="userSpaceOnUse" x1="68.6816" y1="92.8516" x2="63.4618" y2="78.9319">
		<stop  offset="0" style="stop-color:#657180"/>
		<stop  offset="1" style="stop-color:#AFB9C5"/>
		<a:midPointStop  offset="0" style="stop-color:#657180"/>
		<a:midPointStop  offset="0.5" style="stop-color:#657180"/>
		<a:midPointStop  offset="1" style="stop-color:#AFB9C5"/>
	</linearGradient>
	<path fill="url(#SVGID_3_)" d="M96.125,87.346C79.1,91.045,17.461,97.883,17.461,97.883l70.542-26.666
		c0,0,20.494,17.185,25.521-0.401C113.525,70.815,113.148,83.646,96.125,87.346z"/>
</g>
</svg>
